src/images/icons/twitter.svg

<svg width="24" height="25" viewBox="0 0 24 25" fill="none" xmlns="http://www.w3.org/2000/svg">
    <g clip-path="url(#clip0_230_1047)">
        <path d="M14.2856 10.172L23.2216 0H21.1048L13.3424 8.8304L7.1472 0H0L9.3704 13.3544L0 24.02H2.1168L10.3088 14.6928L16.8528 24.02H24M2.8808 1.5632H6.1328L21.1032 22.5336H17.8504"
              fill="#FFFBF4"/>
    </g>
    <defs>
        <clipPath id="clip0_230_1047">
            <rect width="24" height="24.0201" fill="white"/>
        </clipPath>
    </defs>
</svg>

<svg width="24" height="25" fill="none" xmlns="http://www.w3.org/2000/svg"><g clip-path="url(#a)"><path d="M14.286 10.172 23.222 0h-2.117l-7.763 8.83L7.147 0H0l9.37 13.354L0 24.02h2.117l8.192-9.327 6.544 9.327H24M2.88 1.563h3.253l14.97 20.97H17.85" fill="#FFFBF4"/></g><defs><clipPath id="a"><path fill="#fff" d="M0 0h24v24.02H0z"/></clipPath></defs></svg>
